X: 1663
T: Annika's Butterfly
R: barndance
M: 4/4
K: Dmajor
|:B3d fdBd|fd B2 E3G|BGEG BG E2|F3^A c3^A|F4 F4|
FBdc BAGF|edcB ^A2 F2|B3d fdBd|fd B2 E3G|BGEG BG E2|
F3^A c2 e2|dcde f2 ed|d2 cB ^A2 F2|1 B2 B2 BFDc:|2 B2 B2 B2 (3^ABc||
|:d3e dAFG|AGFG AGFG|A2 F2 D4|E3G B2 e2|gfef gfef|
g2 e2 c2 A2|G3B e3f|gf e2 A3d|fede fe d2|B2 gf e3d|
cdef edcd|e2 c2 A3F|G3B e3f|gf e2 A3d|
fede fe d2|B2 gf e3d|cdef edcd|e2 e2 d2 d2:|

